X:1
T:Opera Schottische
T:Opera Schottische
T:Henry Kleber (1816-1897)
C:Henry Kleber (1816-1897)
L:1/8
M:2/4
K:F
V:1 treble 
V:1
 (c2{dc} B>G) |{e} .f{e}.f A2 |{^c} .d{c}.d E2 |{^B} .c{B}.c (A/C/F/A/) | (c2{dc} B>G) | %5
{e} .f{e}.f A2 |{^c} .d{c}.d E>G | F{G}(F/E/) F z || (G=B/d/ fB) | (ce/g/) c'2 |{^g} .a{g}.a =B2 | %11
{^f} .g{f}.g c2 | (G=B/d/) .f.B | (ce/g/ c'2) |{^g} .a{g}.a =B>d | cc/c/ cc | (c2{dc} B>G) | %17
{e} .f{e}.f A2 |{^c} .d{c}.d E2 |{=B} .c{B}.c (A/C/F/A/) | (c2{dc} B>G) |{e} .f{e}.f A2 | %22
{^c} .d{c}.d (E>G) | FF/F/ FF ||[K:Bb] (fF) (eF) | (ed){e} (d/^c/d) | (dF) c(F/A/) | %27
 (B/c/d/e/ f/g/a/b/) | (fF) (eF) | (ed){e} (d/^c/d) | (dF) c(F/A/) | .B{c} (B/A/ B) z | (fF) (eF) | %33
 (ed){e} (d/^c/d) | dF cF/A/ | (B/c/d/e/ f/g/a/b/) | (fF) (eF) | (ed){e} (d/^c/d) | (dF) c(F/A/) | %39
 B{c}(B/A/ B) z ||[K:F] c/c/c B/B/B | e/e/e [Af]2 | (=B/c/)(d/c/) E2 | (=B/c/)(d/c/) F2 | %44
 c/c/c B/B/B | e/e/e [Af]2 | (B/c/)(d/c/) (E>G) | .F.F .F z | c/c/c B/B/B | e/e/e [Af]2 | %50
 (=B/c/)(d/c/) E2 | (=B/c/)(d/c/) F2 | c/c/c B/B/B | e/e/e [Af]2 | (=B/c/)(d/c/) (E>G) | %55
 .F.F .F z ||[K:Bb] (fF) (eF) | (ed){e} (d/^c/d) | (dF) c(F/A/) | (B/c/d/e/ f/g/a/b/) | (fF) (eF) | %61
 (ed){e} (d/^c/d) | (dF) c(F/A/) | B{c}(B/A/ B) z ||[K:F] (c2{dc} B>G) |{e} .f{e}.f A2 | %66
{^c} .d{c}.d E2 |{^B} .c{B}.c (A/C/F/A/) | (c2{dc} B>G) |{e} .f{e}.f A2 |{^c} .d{c}.d E>G | %71
 F{G}(F/E/) F z || %72

